Catalina-dark/status/16/weather-snow-symbolic.svg

<?xml version="1.0" encoding="UTF-8" standalone="no"?>
<!-- Created with Inkscape (http://www.inkscape.org/) -->

<svg
   xmlns:osb="http://www.openswatchbook.org/uri/2009/osb"
   xmlns:dc="http://purl.org/dc/elements/1.1/"
   xmlns:cc="http://creativecommons.org/ns#"
   xmlns:rdf="http://www.w3.org/1999/02/22-rdf-syntax-ns#"
   xmlns:svg="http://www.w3.org/2000/svg"
   xmlns="http://www.w3.org/2000/svg"
   xmlns:sodipodi="http://sodipodi.sourceforge.net/DTD/sodipodi-0.dtd"
   xmlns:inkscape="http://www.inkscape.org/namespaces/inkscape"
   id="svg7384"
   style="enable-background:new"
   height="16"
   width="16"
   version="1.1"
   inkscape:version="0.91 r13725"
   sodipodi:docname="weather-snow-symbolic.svg">
  <sodipodi:namedview
     pagecolor="#ffffff"
     bordercolor="#666666"
     borderopacity="1"
     objecttolerance="10"
     gridtolerance="10"
     guidetolerance="10"
     inkscape:pageopacity="0"
     inkscape:pageshadow="2"
     inkscape:window-width="640"
     inkscape:window-height="480"
     id="namedview8596"
     showgrid="false"
     inkscape:zoom="29.123961"
     inkscape:cx="-0.40706471"
     inkscape:cy="5.7422532"
     inkscape:current-layer="svg7384" />
  <metadata
     id="metadata90">
    <rdf:RDF>
      <cc:Work
         rdf:about="">
        <dc:format>image/svg+xml</dc:format>
        <dc:type
           rdf:resource="http://purl.org/dc/dcmitype/StillImage" />
        <dc:title>Paper Symbolic Icon Theme</dc:title>
      </cc:Work>
    </rdf:RDF>
  </metadata>
  <title
     id="title8473">Paper Symbolic Icon Theme</title>
  <defs
     id="defs7386">
    <filter
       id="filter7554"
       style="color-interpolation-filters:sRGB">
      <feBlend
         id="feBlend7556"
         in2="BackgroundImage"
         mode="darken" />
    </filter>
    <linearGradient
       osb:paint="solid"
       id="linearGradient5606">
      <stop
         style="stop-color:#000000;stop-opacity:1;"
         offset="0"
         id="stop5608" />
    </linearGradient>
    <filter
       id="filter7554-8"
       color-interpolation-filters="sRGB">
      <feBlend
         id="feBlend7556-7"
         in2="BackgroundImage"
         mode="darken" />
    </filter>
  </defs>
  <path
     inkscape:connector-curvature="0"
     style="display:inline;fill:#bebebe;fill-opacity:1;enable-background:new"
     d="M 4.727273,8.857143 A 0.54545455,0.57142856 0 0 1 5.272727,9.428571 0.54545455,0.57142856 0 0 1 4.727273,10 2.7272727,2.8571428 0 0 1 2,7.142857 2.7272727,2.8571428 0 0 1 4.727273,4.2857143 C 5.272727,2.9428571 6.527273,2 8,2 9.8709091,2 11.403637,3.52 11.545455,5.4457142 L 11.818182,5.428571 A 2.1818182,2.2857143 0 0 1 14,7.714285 2.1818182,2.2857143 0 0 1 11.818182,9.999999 l -0.545455,0 A 0.54545455,0.57142856 0 0 1 10.727273,9.428571 0.54545455,0.57142856 0 0 1 11.272727,8.857143 l 0.545455,0 A 1.0909091,1.1428571 0 0 0 12.909091,7.714286 1.0909091,1.1428571 0 0 0 11.818182,6.5714284 l -1.090909,0 0,-0.5714285 A 2.7272727,2.8571428 0 0 0 8,3.1428571 c -1.363636,0 -2.481818,1.0399999 -2.694545,2.3942856 -0.18,-0.068572 -0.376364,-0.1085713 -0.578182,-0.1085713 A 1.6363636,1.7142856 0 0 0 3.090909,7.142857 1.6363636,1.7142856 0 0 0 4.727273,8.857143"
     id="path9931" />
  <path
     d="M 5.3880015,10.709977 5.9508612,10.563479 5.5370689,10.147116 c -0.1002375,-0.09766 -0.1002375,-0.2621535 0,-0.3649597 0.1002374,-0.1002374 0.2672949,-0.1002374 0.3649598,0 L 6.318391,10.195949 6.4648897,9.6330877 c 0.035975,-0.1387875 0.1773399,-0.2184612 0.3135573,-0.18248 0.1387875,0.035987 0.2184612,0.17734 0.1824799,0.3161274 L 6.8092883,10.329596 7.3721492,10.177957 c 0.1387875,-0.03597 0.2801449,0.04369 0.3161274,0.18248 0.035975,0.136218 -0.043687,0.277577 -0.1824799,0.313558 l -0.562861,0.146499 0.4137923,0.416362 c 0.1002375,0.09766 0.1002375,0.264725 0,0.36496 -0.1002374,0.100238 -0.2672949,0.100238 -0.3649598,0 l -0.4163623,-0.413792 -0.1464987,0.56286 c -0.035988,0.138788 -0.1773387,0.218462 -0.3135561,0.182481 -0.1387887,-0.03599 -0.2184624,-0.17734 -0.1824799,-0.316128 l 0.1516374,-0.562861 -0.562861,0.151639 c -0.1387874,0.03597 -0.2801448,-0.04369 -0.3161273,-0.18248 -0.035988,-0.136218 0.043687,-0.277576 0.1824812,-0.313558 z"
     id="path10009"
     style="opacity:0.5;fill:#bebebe;fill-opacity:1"
     inkscape:connector-curvature="0" />
  <path
     inkscape:connector-curvature="0"
     style="opacity:0.5;fill:#bebebe;fill-opacity:1"
     id="path10025"
     d="M 8.4180811,12.09193 8.9809408,11.945431 8.5671485,11.529069 c -0.1002375,-0.09766 -0.1002375,-0.262154 0,-0.36496 0.1002374,-0.100237 0.2672949,-0.100237 0.3649598,0 l 0.4163623,0.413792 0.1464987,-0.562861 c 0.035975,-0.138787 0.1773399,-0.218461 0.3135578,-0.18248 0.138787,0.03599 0.2184609,0.17734 0.182479,0.316128 l -0.151638,0.562861 0.5628609,-0.151639 c 0.138787,-0.03598 0.280145,0.04369 0.316127,0.18248 0.03597,0.136217 -0.04369,0.277576 -0.18248,0.313557 l -0.5628609,0.146499 0.4137929,0.416362 c 0.100237,0.09766 0.100237,0.264725 0,0.36496 -0.100238,0.100238 -0.267295,0.100238 -0.36496,0 L 9.6054855,12.569976 9.4589868,13.132836 C 9.4229993,13.271624 9.2816481,13.351298 9.1454307,13.315317 9.006642,13.279329 8.9269683,13.137977 8.9629508,12.999189 l 0.1516374,-0.562861 -0.562861,0.151639 c -0.1387874,0.03597 -0.2801448,-0.04369 -0.3161273,-0.18248 -0.035987,-0.136217 0.043688,-0.277576 0.1824812,-0.313557 z" />
  <path
     d="M 7.9030413,8.9846652 8.4659006,8.8381665 8.0521087,8.4218042 c -0.1002375,-0.097662 -0.1002375,-0.2621536 0,-0.3649598 0.1002375,-0.1002375 0.2672945,-0.1002375 0.3649595,0 L 8.8334305,8.4706367 8.9799292,7.9077757 C 9.0159042,7.7689883 9.1572691,7.6893145 9.2934865,7.7252958 9.432274,7.7612838 9.5119472,7.9026357 9.4759665,8.0414231 L 9.3243278,8.6042841 9.8871892,8.4526455 c 0.1387868,-0.035975 0.2801448,0.043687 0.3161268,0.1824799 0.03598,0.1362174 -0.04369,0.2775761 -0.18248,0.3135573 l -0.5628608,0.1464987 0.413792,0.4163624 c 0.100238,0.097662 0.100238,0.2647248 0,0.3649598 -0.100237,0.1002374 -0.267295,0.1002374 -0.36496,0 L 9.0904454,9.4627113 8.9439467,10.025571 C 8.9079592,10.16436 8.766608,10.244033 8.6303906,10.208052 8.4916019,10.172065 8.4119282,10.030712 8.4479107,9.8919248 L 8.5995481,9.3290638 8.0366875,9.4807025 C 7.8979,9.5166775 7.7565426,9.437015 7.7205601,9.2982226 7.6845726,9.1620052 7.7642476,9.0206465 7.9030413,8.9846652 Z"
     id="path10027"
     style="opacity:0.5;fill:#bebebe;fill-opacity:1"
     inkscape:connector-curvature="0" />
</svg>

<svg width="16" height="16" enable-background="new" version="1.1" xmlns="http://www.w3.org/2000/svg">
<path d="m4.7273 8.8571a0.54545 0.57143 0 0 1 0.54545 0.57143 0.54545 0.57143 0 0 1-0.54545 0.57143 2.7273 2.8571 0 0 1-2.7273-2.8571 2.7273 2.8571 0 0 1 2.7273-2.8571c0.54545-1.3429 1.8-2.2857 3.2727-2.2857 1.8709 0 3.4036 1.52 3.5455 3.4457l0.27273-0.017143a2.1818 2.2857 0 0 1 2.1818 2.2857 2.1818 2.2857 0 0 1-2.1818 2.2857h-0.54546a0.54545 0.57143 0 0 1-0.54545-0.57143 0.54545 0.57143 0 0 1 0.54545-0.57143h0.54546a1.0909 1.1429 0 0 0 1.0909-1.1429 1.0909 1.1429 0 0 0-1.0909-1.1429h-1.0909v-0.57143a2.7273 2.8571 0 0 0-2.7273-2.8571c-1.3636 0-2.4818 1.04-2.6945 2.3943-0.18-0.068572-0.37636-0.10857-0.57818-0.10857a1.6364 1.7143 0 0 0-1.6364 1.7143 1.6364 1.7143 0 0 0 1.6364 1.7143" enable-background="new" fill="#bebebe"/>
<path d="m5.388 10.71 0.56286-0.1465-0.41379-0.41636c-0.10024-0.09766-0.10024-0.26215 0-0.36496 0.10024-0.10024 0.26729-0.10024 0.36496 0l0.41636 0.41379 0.1465-0.56286c0.035975-0.13879 0.17734-0.21846 0.31356-0.18248 0.13879 0.035987 0.21846 0.17734 0.18248 0.31613l-0.15164 0.56286 0.56286-0.15164c0.13879-0.03597 0.28014 0.04369 0.31613 0.18248 0.035975 0.13622-0.043687 0.27758-0.18248 0.31356l-0.56286 0.1465 0.41379 0.41636c0.10024 0.09766 0.10024 0.26472 0 0.36496-0.10024 0.10024-0.26729 0.10024-0.36496 0l-0.41636-0.41379-0.1465 0.56286c-0.035988 0.13879-0.17734 0.21846-0.31356 0.18248-0.13879-0.03599-0.21846-0.17734-0.18248-0.31613l0.15164-0.56286-0.56286 0.15164c-0.13879 0.03597-0.28014-0.04369-0.31613-0.18248-0.035988-0.13622 0.043687-0.27758 0.18248-0.31356z" fill="#bebebe" opacity=".5"/>
<path d="m8.4181 12.092 0.56286-0.1465-0.41379-0.41636c-0.10024-0.09766-0.10024-0.26215 0-0.36496 0.10024-0.10024 0.26729-0.10024 0.36496 0l0.41636 0.41379 0.1465-0.56286c0.035975-0.13879 0.17734-0.21846 0.31356-0.18248 0.13879 0.03599 0.21846 0.17734 0.18248 0.31613l-0.15164 0.56286 0.56286-0.15164c0.13879-0.03598 0.28014 0.04369 0.31613 0.18248 0.03597 0.13622-0.04369 0.27758-0.18248 0.31356l-0.56286 0.1465 0.41379 0.41636c0.10024 0.09766 0.10024 0.26472 0 0.36496-0.10024 0.10024-0.2673 0.10024-0.36496 0l-0.41636-0.41379-0.1465 0.56286c-0.035988 0.13879-0.17734 0.21846-0.31356 0.18248-0.13879-0.035988-0.21846-0.17734-0.18248-0.31613l0.15164-0.56286-0.56286 0.15164c-0.13879 0.03597-0.28014-0.04369-0.31613-0.18248-0.035987-0.13622 0.043688-0.27758 0.18248-0.31356z" fill="#bebebe" opacity=".5"/>
<path d="m7.903 8.9847 0.56286-0.1465-0.41379-0.41636c-0.10024-0.097662-0.10024-0.26215 0-0.36496 0.10024-0.10024 0.26729-0.10024 0.36496 0l0.41636 0.41379 0.1465-0.56286c0.035975-0.13879 0.17734-0.21846 0.31356-0.18248 0.13879 0.035988 0.21846 0.17734 0.18248 0.31613l-0.15164 0.56286 0.56286-0.15164c0.13879-0.035975 0.28014 0.043687 0.31613 0.18248 0.03598 0.13622-0.04369 0.27758-0.18248 0.31356l-0.56286 0.1465 0.41379 0.41636c0.10024 0.097662 0.10024 0.26472 0 0.36496-0.10024 0.10024-0.2673 0.10024-0.36496 0l-0.41636-0.41379-0.1465 0.56286c-0.035988 0.13879-0.17734 0.21846-0.31356 0.18248-0.13879-0.035987-0.21846-0.17734-0.18248-0.31613l0.15164-0.56286-0.56286 0.15164c-0.13879 0.035975-0.28014-0.043688-0.31613-0.18248-0.035988-0.13622 0.043688-0.27758 0.18248-0.31356z" fill="#bebebe" opacity=".5"/>
</svg>
